X: 37082
T: Silver Star, The
R: hornpipe
M: 4/4
K: Gmajor
(3DEF|:GBAF GDB,D|GBe^c d2ef|gagf ge^cA|GBAG F2D2|
GBAF GDB,D|GBe^c d2ef|gagf ge^cA|1 G2GA G2(3DEF:|2 G2GA G2Bc||
|:(3ded (3B^cd g2gf|e^ce^g a2a=g|fgfe dcBA|GBAG FDB^c|
(3ded (3B^cd g2gf|e^ce^g a2a=g|fgfe dcBA|1 G2GA G2(3B^cd:|2 G2GA G4||

